X: 123
T: Rocky Palace
B: canberra pickers and fiddlers
B: old time tunes update
B: tunes
M:C|
Q: 1/4=100
K:C
V:1 
"C"[e4e4]g3e | agag edcA |cdeg edcd | "F"ea2b a4 |
"C"[e4e4]g3e | agag edcA |cdeg edcA |1 "G"Gc2d "C"c4 :|2"G"Gc2d "C"c2GF |]
|:"C"EC2CC2cB | "F"AGFE DEFD | "G"G2dc BAGB | "C"cdcA "G"GAGF |
"C"EC2CC2cB | "F"AGFE DEFD | "G"G2AB c2d2 |1"C"c2cd c2GF :|2"C"c2cd c4 |]
% abcbook-tune_id 67a7d9ecaf818d7ab1caa25a
% abcbook-tune_composer_id 
% abcbook-link-0 https://www.youtube.com/watch?v=jcDKqv2Ceks
% abcbook-link-title-0 Rocky Palace
% abcbook-boost 0
% abcbook-difficulty 0
% abcbook-tags old time tunes
% abcbook-tablature 
% abcbook-transpose 
% abcbook-tuning GDAE
% abcbook-lastupdated 1739220532597
% abcbook-src-url 
% abcbook-soundfonts 
% abcbook-repeats 1


